X:1418
T:Was soll das bedeuten
C:anon.
O:Germany
A:Schlesien
R:German waltz
Z:Transcribed by Frank Nordberg - http://www.musicaviva.com
F:http://abc.musicaviva.com/tunes/germany/was-soll-das-bedeuten.abc
M:3/4
L:1/4
Q:1/4=148
K:G
(G/A/)|"G"BB(A/B/)|"C"cc(B/c/)|"G"dd(c/B/)|"D"A2:|z|
w:Was_ soll das be--deu-ten es_ ta-get ja_ schon!
w:ich_ wei\ss wohl, es_ geht erst um_ Mit-ter-nacht_ um.
"D"A(A/G/) (A/c/)|"G"B3|"G"B(B/A/) (B/c/)|"D"A2(d/c/)|
w:Schaut nur_ da--her, schaut nur_ da--her! Wie_
"G"Bd(c/B/)|"D"Ac(B/A/)|"G/D"(G/A/)B"D7"A|"G"G2|]
w:gl\"an-zen die_ Stern-lein je_ l\"ang--er je mehr.
W:
W:Was soll das bedeuten es ta-get ja schon!
W:ich wei\ss wohl, es geht erst um Mitternacht um.
W:Schaut nur daher,
W:schaut nur da-her!
W:Wie gl\"anzen die Sternlein je l\"anger je mehr.
W:
W:
W:  From Musica Viva - http://www.musicaviva.com
W:  the Internet center for free sheet music downloads.


